app/img/main/ic_automations.svg

<svg width="115" height="94" viewBox="0 0 115 94" fill="none" xmlns="http://www.w3.org/2000/svg">
    <g filter="url(#filter0_i)">
        <rect width="89" height="79" rx="10" fill="#022AF0"/>
    </g>
    <rect x="0.5" y="0.5" width="88" height="78" rx="9.5" stroke="#FAFAFA" stroke-opacity="0.1"/>
    <rect x="9" y="13" width="50" height="8" rx="4" fill="#131DAA" fill-opacity="0.37"/>
    <rect x="9.5" y="13.5" width="49" height="7" rx="3.5" stroke="#80FF9F" stroke-opacity="0.5"/>
    <rect x="71" y="13" width="10" height="8" rx="4" fill="#022AF0" fill-opacity="0.36"/>
    <rect x="71.5" y="13.5" width="9" height="7" rx="3.5" stroke="#80FF9F" stroke-opacity="0.5"/>
    <rect x="9" y="34" width="41" height="13" rx="5" fill="#0A1193" fill-opacity="0.4"/>
    <rect x="9.5" y="34.5" width="40" height="12" rx="4.5" stroke="#80FF9F" stroke-opacity="0.5"/>
    <rect x="9" y="52" width="41" height="13" rx="5" fill="#0A1193" fill-opacity="0.4"/>
    <rect x="9.5" y="52.5" width="40" height="12" rx="4.5" stroke="#80FF9F" stroke-opacity="0.5"/>
    <rect width="26" height="31" rx="5" transform="matrix(-1 0 0 1 79 34)" fill="#131DAA" fill-opacity="0.23"/>
    <rect x="-0.5" y="0.5" width="25" height="30" rx="4.5" transform="matrix(-1 0 0 1 78 34)" stroke="#80FF9F"
          stroke-opacity="0.5"/>
    <path d="M99.286 87.5605C100.387 87.1113 101.667 87.0683 102.672 87.7043L104.034 88.5664C105.224 89.3192 106.776 89.1437 107.768 88.1444L109.216 86.6848C110.196 85.6974 110.368 84.1661 109.633 82.9855L108.6 81.3283C108.05 80.4454 108.012 79.3478 108.441 78.4002C108.51 78.2475 108.578 78.094 108.643 77.9395C109.077 76.9162 109.921 76.0834 111.005 75.8382L112.662 75.4632C114.029 75.1539 115 73.9389 115 72.5372V70.4628C115 69.0611 114.029 67.8461 112.662 67.5368L110.955 67.1506C109.898 66.9113 109.073 66.1115 108.68 65.1008C108.631 64.9761 108.581 64.8512 108.529 64.7265C108.097 63.6909 108.088 62.4938 108.682 61.5413L109.633 60.0145C110.368 58.8339 110.196 57.3026 109.216 56.3152L107.768 54.8556C106.776 53.8563 105.224 53.6808 104.034 54.4336L102.455 55.4331C101.564 55.997 100.45 56.0352 99.491 55.5961C99.341 55.5274 99.1902 55.4602 99.0383 55.3952C98.0364 54.966 97.2163 54.1456 96.959 53.0864L96.5229 51.2917C96.1961 49.9468 94.9917 49 93.6077 49H91.3923C90.0083 49 88.8039 49.9468 88.4771 51.2917L88.041 53.0864C87.7837 54.1456 86.9613 54.9559 85.9495 55.3611C85.8428 55.4039 85.7366 55.4479 85.6308 55.4934C84.5859 55.9426 83.3744 55.9577 82.4133 55.3495L80.966 54.4336C79.7765 53.6808 78.2235 53.8563 77.232 54.8556L75.7839 56.3152C74.8042 57.3026 74.6318 58.8339 75.3673 60.0144L76.3997 61.6717C76.9497 62.5546 76.9877 63.6522 76.5587 64.5998C76.4896 64.7525 76.4221 64.906 76.3566 65.0605C75.9231 66.0838 75.0792 66.9166 73.9952 67.1618L72.3379 67.5368C70.9707 67.8461 70 69.0611 70 70.4628V72.5372C70 73.9389 70.9707 75.1539 72.3379 75.4632L73.9952 75.8382C75.0792 76.0834 75.9123 76.9187 76.322 77.9517C76.3657 78.0618 76.4107 78.1712 76.4572 78.2803C76.8974 79.3126 76.9118 80.5062 76.3184 81.4587L75.3672 82.9856C74.6318 84.1661 74.8042 85.6974 75.7839 86.6848L77.232 88.1444C78.2235 89.1437 79.7765 89.3192 80.966 88.5664L82.5453 87.5669C83.4364 87.003 84.5503 86.9648 85.509 87.4039C85.659 87.4726 85.8098 87.5398 85.9617 87.6048C86.9636 88.034 87.7837 88.8544 88.041 89.9136L88.4771 91.7083C88.8039 93.0532 90.0083 94 91.3923 94H93.6077C94.9917 94 96.1961 93.0532 96.5229 91.7083L96.959 89.9136C97.2163 88.8544 98.0383 88.0449 99.0551 87.6522C99.1325 87.6223 99.2095 87.5918 99.286 87.5605ZM92.6762 80.1447C87.859 80.1447 83.9817 76.2368 83.9817 71.3816C83.9817 66.5263 87.859 62.6184 92.6762 62.6184C97.4935 62.6184 101.371 66.5263 101.371 71.3816C101.371 76.2368 97.4935 80.1447 92.6762 80.1447Z"
          fill="url(#paint0_linear)"/>
    <defs>
        <filter id="filter0_i" x="0" y="0" width="89" height="83" filterUnits="userSpaceOnUse"
                color-interpolation-filters="sRGB">
            <feFlood flood-opacity="0" result="BackgroundImageFix"/>
            <feBlend mode="normal" in="SourceGraphic" in2="BackgroundImageFix" result="shape"/>
            <feColorMatrix in="SourceAlpha" type="matrix" values="0 0 0 0 0 0 0 0 0 0 0 0 0 0 0 0 0 0 127 0"
                           result="hardAlpha"/>
            <feOffset dy="4"/>
            <feGaussianBlur stdDeviation="15"/>
            <feComposite in2="hardAlpha" operator="arithmetic" k2="-1" k3="1"/>
            <feColorMatrix type="matrix" values="0 0 0 0 0.5 0 0 0 0 1 0 0 0 0 0.625065 0 0 0 1 0"/>
            <feBlend mode="normal" in2="shape" result="effect1_innerShadow"/>
        </filter>
        <linearGradient id="paint0_linear" x1="78" y1="53.5" x2="107" y2="89" gradientUnits="userSpaceOnUse">
            <stop stop-color="#80FF9F"/>
            <stop offset="1" stop-color="#56CCF2"/>
        </linearGradient>
    </defs>
</svg>

<svg width="115" height="94" fill="none" xmlns="http://www.w3.org/2000/svg"><g filter="url(#a)"><rect width="89" height="79" rx="10" fill="#022AF0"/></g><rect x=".5" y=".5" width="88" height="78" rx="9.5" stroke="#FAFAFA" stroke-opacity=".1"/><rect x="9" y="13" width="50" height="8" rx="4" fill="#131DAA" fill-opacity=".37"/><rect x="9.5" y="13.5" width="49" height="7" rx="3.5" stroke="#80FF9F" stroke-opacity=".5"/><rect x="71" y="13" width="10" height="8" rx="4" fill="#022AF0" fill-opacity=".36"/><rect x="71.5" y="13.5" width="9" height="7" rx="3.5" stroke="#80FF9F" stroke-opacity=".5"/><rect x="9" y="34" width="41" height="13" rx="5" fill="#0A1193" fill-opacity=".4"/><rect x="9.5" y="34.5" width="40" height="12" rx="4.5" stroke="#80FF9F" stroke-opacity=".5"/><rect x="9" y="52" width="41" height="13" rx="5" fill="#0A1193" fill-opacity=".4"/><rect x="9.5" y="52.5" width="40" height="12" rx="4.5" stroke="#80FF9F" stroke-opacity=".5"/><rect width="26" height="31" rx="5" transform="matrix(-1 0 0 1 79 34)" fill="#131DAA" fill-opacity=".23"/><rect x="-.5" y=".5" width="25" height="30" rx="4.5" transform="matrix(-1 0 0 1 78 34)" stroke="#80FF9F" stroke-opacity=".5"/><path d="M99.286 87.56c1.101-.449 2.381-.492 3.386.144l1.362.862a3 3 0 0 0 3.734-.422l1.448-1.46a3 3 0 0 0 .417-3.698l-1.033-1.658c-.55-.883-.588-1.98-.159-2.928.069-.153.137-.306.202-.46.434-1.024 1.278-1.857 2.362-2.102l1.657-.375A3 3 0 0 0 115 72.537v-2.074a3 3 0 0 0-2.338-2.926l-1.707-.386c-1.057-.24-1.882-1.04-2.275-2.05-.049-.125-.099-.25-.151-.374-.432-1.036-.441-2.233.153-3.186l.951-1.526a3 3 0 0 0-.417-3.7l-1.448-1.46a3 3 0 0 0-3.734-.421l-1.579 1c-.891.563-2.005.601-2.964.162-.15-.069-.3-.136-.453-.2-1.002-.43-1.822-1.25-2.079-2.31l-.436-1.794A3 3 0 0 0 93.608 49h-2.216a3 3 0 0 0-2.915 2.292l-.436 1.794c-.257 1.06-1.08 1.87-2.091 2.275-.107.043-.213.087-.32.132-1.044.45-2.256.465-3.217-.144l-1.447-.915a3 3 0 0 0-3.734.422l-1.448 1.46a3 3 0 0 0-.417 3.698l1.033 1.658c.55.883.588 1.98.159 2.928-.07.153-.137.306-.202.46-.434 1.024-1.278 1.857-2.362 2.102l-1.657.375A3 3 0 0 0 70 70.463v2.074a3 3 0 0 0 2.338 2.926l1.657.375c1.084.245 1.917 1.08 2.327 2.114.044.11.089.22.135.328.44 1.033.455 2.226-.139 3.179l-.95 1.527a3 3 0 0 0 .416 3.699l1.448 1.46a3 3 0 0 0 3.734.421l1.58-1c.89-.563 2.004-.601 2.963-.162.15.069.3.136.453.2 1.002.43 1.822 1.25 2.079 2.31l.436 1.794A3 3 0 0 0 91.392 94h2.216a3 3 0 0 0 2.915-2.292l.436-1.794c.257-1.06 1.08-1.87 2.096-2.262l.231-.091Zm-6.61-7.415c-4.817 0-8.694-3.908-8.694-8.763 0-4.856 3.877-8.764 8.694-8.764 4.817 0 8.695 3.908 8.695 8.764 0 4.855-3.877 8.763-8.695 8.763Z" fill="url(#b)"/><defs><linearGradient id="b" x1="78" y1="53.5" x2="107" y2="89" gradientUnits="userSpaceOnUse"><stop stop-color="#80FF9F"/><stop offset="1" stop-color="#56CCF2"/></linearGradient><filter id="a" x="0" y="0" width="89" height="83" filterUnits="userSpaceOnUse" color-interpolation-filters="sRGB"><feFlood flood-opacity="0" result="BackgroundImageFix"/><feBlend in="SourceGraphic" in2="BackgroundImageFix" result="shape"/><feColorMatrix in="SourceAlpha" values="0 0 0 0 0 0 0 0 0 0 0 0 0 0 0 0 0 0 127 0" result="hardAlpha"/><feOffset dy="4"/><feGaussianBlur stdDeviation="15"/><feComposite in2="hardAlpha" operator="arithmetic" k2="-1" k3="1"/><feColorMatrix values="0 0 0 0 0.5 0 0 0 0 1 0 0 0 0 0.625065 0 0 0 1 0"/><feBlend in2="shape" result="effect1_innerShadow"/></filter></defs></svg>
